X:1
T:Betlēmes zvaigzne
T:Poļu koļenda: "O gwiazdo Betlejemska" mel. Z. Odelgiewicz; ar. D. Kusz, OP
T:Oriģinālteksts: A. Orszulok/Z. Odelgiewicz
T:Betlēmes zvaigzne
C:Poļu koļenda: "O gwiazdo Betlejemska"
C:mel. Z. Odelgiewicz; ar. D. Kusz, OP
Z:Oriģinālteksts: A. Orszulok/Z. Odelgiewicz
%%score { ( 1 2 ) | ( 3 4 ) }
L:1/8
M:6/8
K:G
V:1 treble nm="P1"
V:2 treble 
V:3 bass 
V:4 bass 
V:1
"^Tranquillo" D | GFG AGA | B3"^-""^-""^-" d3 | cBA G2 F | G3 z2 D | GFG AGA | B3"^-""^-""^-" d3 | %7
w: 1.|at- mir- dzi, Bet- lē- mes|zvaig- zne,|pie ma- nām de- be-|sīm. Es|il- go- jos ie- rau- dzīt|1. vu|
w: 2.|at- ro- dams vai- rāk Viņš|stal- lī,|tuk- ša ir si- lī-|te. Ak,|Kris- tu, kur mek- lēt mums|2. vi,|
w: 3.|tro- nis, Kungs, si- lī- tē|bi- ja|kļu- vis Tev ļo- ti|mīļš. Vai|dvē- se- le ma- na Tev|3. va|
w: |||||||
 cBA G2 F | G3 z2 B | E2 F GFE | F3 B3 | BAG (GF)E | B3 z2 (c/"^–"B/) | A2 A AGA | %14
w: gais- mu nakts tum- su-|mā. Ak,|aiz- ved ma- ni uz|stal- li,|1. rā dus Die- * va|Dēls: * *|Cil- vēks Jau- na- vai|
w: kur ir Tavs mā- jok-|lis? Pie|al- tā- ra nāk- sim|sa- likt|2. mī- las u- * pu-|ri un *|go- du dzi- ļā- ko|
w: dār- gā- ka vēl par|to? Ak,|ap- žē- lo- jies par|ma- ni,|3. dzos es ze- * mī-|gi: ja *|stal- li ne- ni- ci-|
w: |||||||
"^-""^-""^-" B3"^–" d3 | cBA G2 F | G3 z3 | z6 | z6 | BAG (GF)E | B3 z2 (c/"^–"B/) | A2 A AGA | %22
w: svē- tai|dzi- mis, lai glāb- tu|||||1. Dievs *|Cil- vēks Jau- na- vai|
w: at- dot|lūk, mū- su vel- tes|2.||||2. un *|go- du dzi- ļā- ko|
w: nā- ji,|nāc ma- nā sir- dī|3.||||3. ja *|stal- li ne- ni- ci-|
w: |||||ku- rā dus Die- * va|||
"^-""^-""^-" B3"^–" d3 | cBA G2 F | G3- G2 |] %25
w: svē- tai|dzi- mis, lai glāb- tu|mūs. _|
w: at- dot|lūk, mū- su vel- tes|Tev. _|
w: nā- ji,|nāc ma- nā sir- dī|ar’! _|
w: |||
V:2
 D | DDE FED | G3 ^G3 | AAE D2 D | D3 x2 D | DDE FED | G3 G3 | AGE D2 D | D3 z3 | z6 | z6 | %11
w: |||||||||||
w: |||||||||||
w: |||||||||||
 GFE E2 E | F3 x2 F | E2 E FFF | (GAF) G3 | GGE D2 D | D3 x3 | z3 z2 E | B,2 B, DEF | (GF)E E2 E | %20
w: |||||1.|Ak,|aiz- ved ma- ni uz|stal- * li, Die- va|
w: ||||||Pie|al- tā- ra nāk- sim|sa- * likt u- pu-|
w: ||||||Ak,|ap- žē- lo- jies par|ma- * ni, ze- mī-|
 F3 x2 F | E2 E FFF | (GAF) G3 | GGE D2 D | D3- D2 |] %25
w: |||||
w: |||||
w: |||||
V:3
 D, | B,B,B, DDD | D3 B,3 | EEC A,2 A, | B,3 z2 A, | B,B,B, DDD | D3 B,3 | EEC B,CA, | B,3 z3 | %9
w: |||||||||
w: |||||||||
w: |||||||||
w: |||||||||
w: |||||||||
w: |||||||||
w: |||||||||
 z6 |"^-""^-" z6 | B,B,B, ^C2 C | ^D3 z2 D | E2 C A,A,D | D3 B,3 | EEC A,C/B,/A, | B,3 z2 B, | %17
w: ||||||||
w: ||||||||
w: ||||||||
w: ||||||||
w: |||||||* Ak,|
w: |||||||* Pie|
w: |||||||* Ak,|
 E,2 F, G,F,E, | F,3 B,3 | B,B,B, ^C2 C | ^D3 z2 D | E2 C A,A,D | D3 B,3 | EEC A,C/B,/A, | %24
w: |||||||
w: |||||||
w: |||||||
w: |||||||
w: aiz- ved ma- ni uz|stal- li,|ku- rā dus Die- va|||||
w: al- tā- ra nāk- sim|sa- likt|sirds mī- las u- pu-|||||
w: ap- žē- lo- jies par|ma- ni,|lū- dzos es ze- mī-|||||
 B,3- B,2 |] %25
w: |
w: |
w: |
w: |
w: |
w: |
w: |
V:4
 D, | G,A,G, D,D,F, | B,A,G, E,3 | C,C,C, D,2 D, | G,3 x2 F, | G,A,G, D,D,F, | B,A,G, E,3 | %7
w: |||||||
w: |||||||
w: |||||||
w: |||||||
w: |||||||
w: |||||||
w: |||||||
 A,,B,,C, D,2 D, | G,3 x3 | z3 z2 E, | B,,2 B,, D,E,F, | E,2 B,, ^A,,2 A,, | B,,3 x2 B,, | %13
w: ||||||
w: ||||||
w: ||||||
w: ||||||
w: ||1.|aiz- ved ma- ni uz|1. li, Die- va|Dēls: *|
w: ||2.|al- tā- ra nāk- sim|2. likt u- pu-|ri *|
w: ||3.|ap žē- lo jies par|3. ni, ze- mī-|gi: *|
 A,,B,,C, D,D,D, | G,2 F, E,2 D, | C,C,C, D,2 D, | G,3 z3 | z6 | z6 | E,E,B,, ^A,,2 A,, | %20
w: |||||||
w: |||||||
w: |||||||
w: |||||||
w: |||||||
w: |||||||
w: |||||||
 B,,3 x2 B,, | A,,B,,C, D,D,D, | G,2 F, E,2 D, | C,C,C, D,2 D, | G,3- G,2 |] %25
w: |||||
w: |||||
w: |||||
w: |||||
w: |||||
w: |||||
w: |||||

